X: 96
T: Snowbird on the Ashbank
C:Texas Shorty's version
B: canberra pickers and fiddlers
B: old time tunes update
B: tunes
M:C|
L:1/8
Q: 1/4=100
K:G
V:1 
|: Bc | "G"dg2 ag2 ga  |  bgdg bgag  | "F"dBde =fcfg  |  a=fcf (3a^a=a fc  |
        "G"dggb g4  |  gbg=f dcde  | "F"=fafd "D7"(3BcB GA  |  BdAF "G"G2 :|
|: DB, | G,A,B,C DFGA |  BGdG eGdG  |  "F"A=FFG FCDE  |  =FGAB cAdc  |
"G"BG G2 G2 (3DEF  |  GABc "(F)"de=fd  |  "D7"cBG=F DFGA  |  BdAF "G"G2 :|
% abcbook-tune_id 67a7d9ecf4342f224271dc7c
% abcbook-tune_composer_id 
% abcbook-link-0 https://www.youtube.com/watch?v=-G8nGpMYNjA
% abcbook-link-title-0 Snowbird On the Ash Bank
% abcbook-boost 0
% abcbook-difficulty 0
% abcbook-tags old time tunes
% abcbook-tablature 
% abcbook-transpose 
% abcbook-tuning AEAC#
% abcbook-lastupdated 1739238262562
% abcbook-src-url 
% abcbook-soundfonts 
% abcbook-repeats 1


